X:1
T:Almighty God, unto whom
T:Joseph Key
T:Text: BCP
T:This edition by Edmund Gooch released into the public domain, September 2010. As such, it may be freely copied and performed.
T:Almighty God, unto whom
T:The Collect for the Communion
C:Joseph Key
Z:Text: BCP
%%score [ 1 2 3 4 ]
L:1/8
M:3/4
K:Bb
V:1 treble nm="Soprano" snm="S."
V:2 treble nm="Alto" snm="A."
V:3 treble-8 transpose=-12 nm="Tenor" snm="T."
V:4 bass nm="Bass" snm="B."
V:1
"^Slow" z4 B2 | B4 B2 | A4 A2 | G4 G2 | ^F4 FF | (G2 A2) B2 | (B2 c2) d2 | d2 c2 z2 | e3 e e2 | %9
w: Al-|migh- ty|God, al-|migh- ty|God, un- to|whom _ all|hearts _ be|o- pen,|all de- sires|
 d4 (d>e) | f2 e2 d2 | c2 B2 TA2 | B4 d2 | d4 d2 | c4 c2 | B4 B2 | A4 z2 | z6 | z6 | z6 | z6 | z6 | %22
w: known, and _|from whom no|se- crets are|hid, Al-|migh- ty|God, al-|migh- ty|God,||||||
 z6 | z6 | z6 |: d>d d2 dd | c6 | B>B B2 BB | A4 AA | BA G^F G(A/B/) | c4 (cB) | (BA) A z z2 | z6 | %33
w: |||Cleanse the thoughts of our|hearts,|cleanse the thoughts of our|hearts, by the|in- spi- ra- tion of thy _|Ho- ly _|Spi- * rit,||
 z2 z A Bc | d2 c2 B2 | B2 A2 ^F2 | G3 G G2 | F>F F2 F2 | G4 G2 | ^F4 F2 | G3 G G2 | A>A A2 A2 | %42
w: that we may|per- fect- ly|love thee and|wor- thi- ly|mag- ni- fy thy|ho- ly|name, and|wor- thi- ly|mag- ni- fy thy|
 B4 c2 | d4 (dc) | B4 TA2 | B6 :|[M:4/4] B8 | c8 | A8 | B8 |] %50
w: ho- ly|name, through _|Christ our|Lord.|A-|men,|A-|men.|
V:2
 z4 F2 | F4 F2 | F4 F2 | D4 D2 | D4 z2 | z6 | z6 | z6 | z6 | z6 | z6 | z6 | z4 F2 | F4 F2 | F4 F2 | %15
w: Al-|migh- ty|God, al-|migh- ty|God,||||||||Al-|migh- ty|God, al-|
 D4 D2 | D4 z2 | z6 | z6 | z6 | z6 | z6 | z6 | z6 | z6 |: F>F F2 FF | F6 | D>D D2 DD | D4 DD | %29
w: migh- ty|God,|||||||||Cleanse the thoughts of our|hearts,|cleanse the thoughts of our|hearts, by the|
 DD DD (B,/C/)D | E4 E2 | D2 DC DE | F2 E2 D2 | D2 C z z2 | z6 | z4 D2 | D3 D (E>D) | C>C C2 D2 | %38
w: in- spi- ra- tion of _ thy|Ho- ly|Spi- rit, that we may|per- fect- ly|love thee,||and|wor- thi- ly _|mag- ni- fy thy|
 E4 E2 | D4 D2 | D3 D (D>E) | F>F F2 F2 | F4 F2 | F4 (FG) | F4 E2 | D6 :|[M:4/4] E8 | E8 | C8 | %49
w: ho- ly|name, and|wor- thi- ly _|mag- ni- fy thy|ho- ly|name, through _|Christ our|Lord.|A-|men,|A-|
 D8 |] %50
w: men.|
V:3
 z4 d2 | d4 d2 | c4 c2 | B4 B2 | A4 z2 | z6 | z6 | z6 | z6 | z6 | z6 | z6 | z4 B2 | B4 B2 | A4 A2 | %15
w: Al-|migh- ty|God, al-|migh- ty|God,||||||||Al-|migh- ty|God, al-|
 G4 G2 | ^F4 FF | (G2 A2) B2 | (B2 c2) d2 | d2 c2 z2 | e3 e e2 | d4 (d>e) | f2 e2 d2 | c2 B2 TA2 | %24
w: migh- ty|God, un- to|whom _ all|hearts _ be|o- pen,|all de- sires|known, and _|from whom no|se- crets are|
 B6 |: B>B B2 BB | A6 | G>G G2 GG | ^F4 FF | GA BA G^F | G4 G2 | (G^F) FA Bc | d2 c2 B2 | %33
w: hid:|Cleanse the thoughts of our|hearts,|cleanse the thoughts of our|hearts, by the|in- spi- ra- tion of thy|Ho- ly|Spi- * rit, that we may|per- fect- ly|
 B2 A z z2 | z6 | z4 A2 | B3 B (c>B) | A>A A2 B2 | (B>A G2) (c>B) | A4 A2 | B3 B B2 | c>c c2 d2 | %42
w: love thee,||and|wor- thi- ly _|mag- ni- fy thy|ho- * * ly _|name, and|wor- thi- ly|mag- ni- fy thy|
 (d>c B2) A2 | (B>c de) (fe) | d4 Tc2 | B6 :|[M:4/4] G8 | G8 | F8 | F8 |] %50
w: ho- * * ly|name, _ _ _ through _|Christ our|Lord.|A-|men,|A-|men.|
V:4
 z4 B,,2 | B,,4 B,,2 | [F,,F,]4 [F,,F,]2 | [G,,G,]4 [G,,G,]2 | D,4 D,D, | (G,2 ^F,2) (G,A,) | %6
w: Al-|migh- ty|God, al-|migh- ty|God, un- to|whom _ all _|
 (B,2 A,2) B,2 | F,2 F,,2 z2 | C,3 C, C,2 | B,,4 (B,,>C,) | D,2 C,2 B,,2 | E,2 F,2 [F,,F,]2 | %12
w: hearts _ be|o- pen,|all de- sires|known, and _|from whom no|se- crets are|
 B,,4 B,,2 | B,,4 B,,2 | [F,,F,]4 [F,,F,]2 | [G,,G,]4 G,,2 | D,4 D,D, | %17
w: hid, Al-|migh- ty|God, al-|migh- ty|God, un- to|
 ([G,,G,]2 [^F,,^F,]2) ([G,,G,][A,,A,]) | ([B,,B,]2 [A,,A,]2) [B,,B,]2 | F,2 F,,2 z2 | C,3 C, C,2 | %21
w: whom _ all _|hearts _ be|o- pen,|all de- sires|
 B,,4 (B,,>C,) | D,2 C,2 B,,2 | E,2 F,2 [F,,F,]2 | B,,6 |: B,,>B,, B,,2 B,,B,, | [F,,F,]6 | %27
w: known, and _|from whom no|se- crets are|hid:|Cleanse the thoughts of our|hearts,|
 [G,,G,]>[G,,G,] [G,,G,]2 [G,,G,][G,,G,] | D,4 D,D, | G,^F, G,D, E,D, | C,4 C,2 | D,2 D, z z2 | %32
w: cleanse the thoughts of our|hearts, by the|in- spi- ra- tion of thy|Ho- ly|Spi- rit,|
 z6 | z2 z ^F, G,A, | B,2 A,2 G,2 | D2 D,2 D,2 | G,3 G, C,2 | F,>F, F,2 B,,2 | E,4 C,2 | D,4 D,2 | %40
w: |that we may|per- fect- ly|love thee and|wor- thi- ly|mag- ni- fy thy|ho- ly|name, and|
 G,3 G, G,2 | F,>F, (F,E,) (D,C,) | B,,4 F,2 | %43
w: wor- thi- ly|mag- ni- fy _ thy _|ho- ly|
"^The alto part is printed in the treble clef an octave above sounding pitch in the source." B,4 (D,E,) | %44
w: name, through _|
 F,4 [F,,F,]2 | B,,6 :|[M:4/4] E,8 | C,8 | [F,,F,]8 | B,,8 |] %50
w: Christ our|Lord.|A-|men,|A-|men.|

